X: 390
T: Jun xipian diao
%%abc-version 2.0
%%abcx-abcm2ps-target-version 5.9.1 (29 Sep 2008)
%%abc-creator hum2abc beta
%%abcx-conversion-date 2013/10/02 07:52:30
%%abc-edited-by Helmut Schaffrath
%%humdrum-veritas 245983393
%%humdrum-veritas-data 1142261337
%%continueall 1
%%barnumbers 0
L: 1/16
M: 2/4
K: Bb
d'2 d'2 f' f' f' g' [I:setbarnb 1]| 
f'4d'4 | 
f' c'2 d' f' f'2 c' | 
b8 | 
d'2 c' d' f'2 f' d' | 
c'2 b c' d'2 f'2 | 
b c' a g2< f2 g | 
g b f g a c' g2 | 
f8 |]  



